assets/svg/icon_wallet_protect_account.svg

<svg width="24" height="24" viewBox="0 0 24 24" fill="none" xmlns="http://www.w3.org/2000/svg">
<path d="M4.80078 10.7353C4.80078 8.17721 4.80078 6.89818 5.10279 6.46788C5.40481 6.03758 6.60744 5.62592 9.01271 4.80259L9.47096 4.64573C10.7248 4.21654 11.3517 4.00195 12.0008 4.00195C12.6499 4.00195 13.2768 4.21654 14.5306 4.64573L14.9889 4.80259C17.3941 5.62592 18.5968 6.03758 18.8988 6.46788C19.2008 6.89818 19.2008 8.17721 19.2008 10.7353C19.2008 11.1217 19.2008 11.5407 19.2008 11.995C19.2008 16.5055 15.8096 18.6943 13.6819 19.6238C13.1048 19.8759 12.8162 20.002 12.0008 20.002C11.1854 20.002 10.8968 19.8759 10.3196 19.6238C8.19195 18.6943 4.80078 16.5055 4.80078 11.995C4.80078 11.5407 4.80078 11.1217 4.80078 10.7353Z" stroke="#0E0E0E" stroke-width="1.2"/>
<path d="M11.5996 15.2027H12.3996C12.8414 15.2027 13.1996 14.8446 13.1996 14.4027V13.2817C13.917 12.8667 14.3996 12.0911 14.3996 11.2027C14.3996 9.87725 13.3251 8.80273 11.9996 8.80273C10.6741 8.80273 9.59961 9.87725 9.59961 11.2027C9.59961 12.0911 10.0822 12.8667 10.7996 13.2817V14.4027C10.7996 14.8446 11.1578 15.2027 11.5996 15.2027Z" stroke="#0E0E0E" stroke-width="1.2" stroke-linejoin="round"/>
</svg>

<svg xmlns="http://www.w3.org/2000/svg" width="24" height="24" fill="none"><path stroke="#0E0E0E" stroke-width="1.2" d="M4.8 10.735c0-2.558 0-3.837.303-4.267.302-.43 1.504-.842 3.91-1.665l.458-.157c1.254-.43 1.88-.644 2.53-.644s1.276.215 2.53.644l.458.157c2.405.823 3.608 1.235 3.91 1.665s.302 1.71.302 4.267v1.26c0 4.51-3.391 6.7-5.52 7.629-.576.252-.865.378-1.68.378-.816 0-1.104-.126-1.681-.378-2.128-.93-5.52-3.118-5.52-7.629z"/><path stroke="#0E0E0E" stroke-linejoin="round" stroke-width="1.2" d="M11.6 15.203h.8a.8.8 0 0 0 .8-.8v-1.121a2.4 2.4 0 0 0-1.2-4.48 2.4 2.4 0 0 0-1.2 4.48v1.12a.8.8 0 0 0 .8.8Z"/></svg>
